X: 17587
T: Hobgoblin's
R: waltz
M: 3/4
K: Gminor
A,|:"Dm"DD/>=E/F "Am" AA/>c/d|"Cm" edc "Dm"d2 d|"Cm" ee/>d/c "Gm" dcB|
"Cm" cc/>B/ A/G/ "D" ^F2 D|"Gm"GG/>A/B "Cm"cc/>B/c|"Gm7" (3f/g/f/ ed "A"^c2d/d/|
"Gm"BB/>A/G "D" ^FF/>G/A|1 "Gm" D/<G/G^F "Gm"G2 "Dm" A,:|2 "Gm" D/<G/G"D" ^F "Gm" GG/>A/ B/c/|
|:"Bb" dd/>c/B Bcd|"F" ff/>e/d "F/A" c2 f/g/|"Fm/Ab" _aa/>g/f fg _a|
"Gm" gg/>f/ =e/d/ "A7"^c =B A|"Dm" dd/>=e/f "Gm" gg/>f/g|"F" (3c'/d'/c'/ba "Fm/Ab" _a z _a|
"Dm" aa/>g/f "C#dim" =efg|1 "A" a/<d/d^c "Dm" d2 B/c/:|2 "A" a/d/ ^c/A/ G/=E/ "Dm" D2||

